packages/core/src/svgs/collab.svg

<svg width="24" height="24" viewBox="0 0 24 24" fill="none" xmlns="http://www.w3.org/2000/svg">
<g clip-path="url(#clip0_31_8567)">
<path d="M0 0H24V24H0V0Z" fill="#F0F3FA"/>
<path d="M11.9143 18.6083C15.2565 18.6083 17.9658 16.4382 17.9658 13.7612C17.9658 11.0842 15.2565 8.91406 11.9143 8.91406C8.57223 8.91406 5.86292 11.0842 5.86292 13.7612C5.86292 16.4382 8.57223 18.6083 11.9143 18.6083Z" fill="#241D5E"/>
<path d="M20.2672 11.9228C20.1257 10.4657 19.6543 6.00424 19.6457 5.8371C19.6372 5.64424 19.3586 5.39567 19.3586 5.75139C19.3586 6.00424 19.0757 8.64853 19.0757 10.7142H18.5786C17.6486 8.45139 15.1929 6.96424 12.2657 6.86567H11.7C8.77288 6.95996 6.33431 8.45139 5.4086 10.7142H4.89431C4.89431 8.64853 4.63717 5.99996 4.63717 5.75567C4.63717 5.39567 4.3586 5.64424 4.35431 5.8371C4.34574 6.00424 3.87431 10.4657 3.73289 11.9228C3.53146 12.1928 3.42003 12.5228 3.42431 12.8571C3.42431 13.3971 3.78431 13.9714 4.22146 13.9714C4.33717 14.28 4.48717 14.73 4.67574 15H5.38717C6.34288 17.3357 8.93574 18.8571 11.9786 18.8571C15.0215 18.8571 17.6057 17.3357 18.5615 15H19.3029C19.4915 14.73 19.6586 14.28 19.77 13.9714C20.2115 13.9714 20.5672 13.4014 20.5672 12.8571C20.5672 12.5228 20.4643 12.1928 20.2629 11.9228H20.2672ZM11.9829 18.45C8.82003 18.45 6.25717 16.41 6.25717 13.8857C6.25717 12 7.69288 10.38 9.73717 9.68567L10.11 10.4528C10.1426 10.5314 10.1978 10.5985 10.2686 10.6457C10.34 10.6918 10.4236 10.7157 10.5086 10.7142H13.4657C13.5508 10.7157 13.6343 10.6918 13.7057 10.6457C13.7766 10.5985 13.8318 10.5314 13.8643 10.4528L14.2372 9.68996C16.2772 10.3885 17.7043 12.0042 17.7043 13.89C17.7043 16.41 15.1415 18.45 11.9829 18.45Z" fill="#F5C249"/>
<path d="M13.9286 12.4287C13.7572 12.4287 13.5943 12.5016 13.4743 12.6259C13.3543 12.7544 13.2857 12.9259 13.2857 13.1059V14.7516C13.2857 14.9316 13.3543 15.103 13.4743 15.2316C13.5943 15.3601 13.7572 15.4287 13.9286 15.4287C14.1 15.4287 14.2629 15.3559 14.3829 15.2316C14.5029 15.103 14.5714 14.9316 14.5714 14.7516V13.1059C14.5714 12.9259 14.5029 12.7544 14.3829 12.6259C14.2629 12.4973 14.1 12.4287 13.9286 12.4287ZM10.0714 12.4287C9.90002 12.4287 9.73716 12.5016 9.61716 12.6259C9.49716 12.7544 9.42859 12.9259 9.42859 13.1059V14.7516C9.42859 14.9316 9.49716 15.103 9.61716 15.2316C9.73716 15.3601 9.90002 15.4287 10.0714 15.4287C10.2429 15.4287 10.4057 15.3559 10.5257 15.2316C10.6457 15.103 10.7143 14.9316 10.7143 14.7516V13.1059C10.7143 12.9259 10.6457 12.7544 10.5257 12.6259C10.4057 12.4973 10.2429 12.4287 10.0714 12.4287ZM12 17.143C11.7727 17.143 11.5547 17.0527 11.3939 16.8919C11.2332 16.7312 11.1429 16.5132 11.1429 16.2859H11.4214C11.4214 16.5859 11.6786 16.8344 12 16.8344C12.3172 16.8344 12.5786 16.5859 12.5786 16.2859H12.8572C12.8572 16.5132 12.7669 16.7312 12.6061 16.8919C12.4454 17.0527 12.2273 17.143 12 17.143Z" fill="#F0F3FA"/>
</g>
<defs>
<clipPath id="clip0_31_8567">
<rect width="24" height="24" fill="white"/>
</clipPath>
</defs>
</svg>

<svg xmlns="http://www.w3.org/2000/svg" width="24" height="24" fill="none" viewBox="0 0 24 24"><g clip-path="url(#a)"><path fill="#F0F3FA" d="M0 0h24v24H0z"/><path fill="#241D5E" d="M11.914 18.608c3.343 0 6.052-2.17 6.052-4.847s-2.71-4.847-6.052-4.847-6.051 2.17-6.051 4.847 2.71 4.847 6.051 4.847"/><path fill="#F5C249" d="M20.267 11.923c-.141-1.457-.613-5.919-.621-6.086-.009-.193-.287-.441-.287-.086 0 .253-.283 2.898-.283 4.963h-.497c-.93-2.263-3.386-3.75-6.313-3.848H11.7c-2.927.094-5.366 1.585-6.291 3.848h-.515c0-2.065-.257-4.714-.257-4.958 0-.36-.278-.112-.283.081-.008.167-.48 4.629-.621 6.086-.202.27-.313.6-.309.934 0 .54.36 1.114.797 1.114.116.309.266.759.455 1.029h.711c.956 2.336 3.549 3.857 6.592 3.857s5.627-1.521 6.583-3.857h.74c.19-.27.357-.72.468-1.029.442 0 .797-.57.797-1.114 0-.334-.103-.664-.304-.934zm-8.284 6.527c-3.163 0-5.726-2.04-5.726-4.564 0-1.886 1.436-3.506 3.48-4.2l.373.767a.43.43 0 0 0 .159.193c.071.046.155.07.24.068h2.957a.43.43 0 0 0 .24-.068.43.43 0 0 0 .158-.193l.373-.763c2.04.699 3.467 2.314 3.467 4.2 0 2.52-2.562 4.56-5.721 4.56"/><path fill="#F0F3FA" d="M13.929 12.429a.63.63 0 0 0-.455.197.7.7 0 0 0-.188.48v1.646c0 .18.068.351.188.48.12.128.283.197.455.197a.63.63 0 0 0 .454-.197c.12-.129.188-.3.188-.48v-1.646a.7.7 0 0 0-.188-.48.62.62 0 0 0-.454-.197m-3.858 0a.63.63 0 0 0-.454.197.7.7 0 0 0-.188.48v1.646c0 .18.068.351.188.48.12.128.283.197.454.197a.63.63 0 0 0 .455-.197c.12-.129.188-.3.188-.48v-1.646a.7.7 0 0 0-.188-.48.62.62 0 0 0-.455-.197M12 17.143a.857.857 0 0 1-.857-.857h.278c0 .3.258.548.579.548.317 0 .579-.248.579-.548h.278a.857.857 0 0 1-.857.857"/></g><defs><clipPath id="a"><path fill="#fff" d="M0 0h24v24H0z"/></clipPath></defs></svg>
